X:1
T:Carol of the Bells
T:Carol of the Bells
T:Caleb and David Schmurr
C:Caleb and David Schmurr
%%score 1 { 2 | 3 }
L:1/8
M:6/8
K:G
V:1 treble nm="Violin" snm="Vln."
V:2 treble nm="Piano" snm="Pno."
V:3 bass 
V:1
 z"^pizz"[Q:3/8=80] .e.e z .d.d | z .c.c z .B.B | z .c.c z .B.B | z .A.A z z2 | z6 | z6 | z6 | z6 | %8
!p!"^arco" e'6- | e'6 | BA/B/G BA/B/G | BA/B/G BA/B/G |!mf! ee/e/d/c/ BB/B/A/G/ | %13
 AA/A/B/A/ GF/G/E | ee/e/d/c/ BB/B/A/G/ | A>AB/A/ GF/G/E | B,/^C/^D/E/F/G/ A/B/AG | %17
 B,/^C/^D/E/F/G/ A/B/AG | z6 | ba/b/g ba/b/g | ggg ggg | edc BAE | E2 B B2 c | c2 e g2 f | %24
 e2 ^d e2 g | f2 z4 | E3 D3 | C3 B,3 | C3 B,3 | A,3 G2 B | c2 A B2 c | d2 e B2 A | G2 E F2 G | %33
 A2 A z GA | B2 B c2 B | B2 A G2 F | E2 z4 | [G,E]3 [G,^D]3 | [G,E]3 z z2 | z6 | e'6- | e'6 |] %42
V:2
 .E z z .D z z | .C z z .B, z z | .C z z .B, z z | .A, z z gf/g/e | gf/g/e gf/g/e | gf/g/e gf/g/e | %6
 gf/g/e gf/g/e | gf/g/e gf/g/e | gf/g/e gf/g/e | gf/g/e gf/g/e | gf/g/e gf/g/e | gf/g/e gf/g/e | %12
!p! gf/g/e gf/g/e | gf/g/e gf/g/e | gf/g/e gf/g/e | gf/g/e gf/g/e | gf/g/e gf/g/e | gf/g/e gf/g/e | %18
!mf! gf/g/e gf/g/e | gf/g/e gf/g/e | g2 g g2 g | e2 B E2 E | E2 B B2 A | G2 F E2 D | E2 F G2 A | %25
 B2 z z2 E | E2 B B2 A | G2 F E2 D | E2 F G2 A | [B,^DFB]FD B,3 | AEC A,CE | GDB, G,B,D | %32
 EB,G, E,G,B, | FED A,DF | z6 | z6 | gf/g/e gf/g/e | gf/g/e gf/g/e | gf/g/e gf/g/e | %39
 gf/g/e gf/g/e | [E,B,E]6 | [E,B,E]6 |] %42
V:3
 .E, z z .D, z z | .C, z z .B,, z z | .C, z z .B,, z z | .A,, z z E,,3- | E,,6- | E,,6 | %6
 [E,,,E,,]6- | [E,,,E,,]6 | E,,3 F,,3 | G,,3 A,,3 | B,,3 C,3 | D,3 _E,3 | E,6 | A,,3 E,3 | %14
 [G,,E,]6 | [A,,E,]3 [E,,B,,E,]3 | [B,,F,]3 B,,3 | [F,,B,,F,]3 [B,,F,B,]3 | .[E,B,E] z z4 | z6 | %20
 E,3 E,3 | B,,3 E,2 [E,,E,] | [E,,E,][E,,E,][E,,E,] [E,,E,][E,,E,][E,,E,] | %23
 [E,,E,][E,,E,][E,,E,] [E,,E,][E,,E,][E,,E,] | [C,,C,][C,,C,][C,,C,] [C,,C,][C,,C,][C,,C,] | %25
 [B,,,B,,]2 B,,, ^D,,F,,B,, | [E,,E,][E,,E,][E,,E,] [E,,E,][E,,E,][E,,E,] | %27
 [E,,E,][E,,E,][E,,E,] [E,,E,][E,,E,][E,,E,] | [C,,C,][C,,C,][C,,C,] [C,,C,][C,,C,][C,,C,] | %29
 [B,,,B,,]6 | [A,,E,A,]6 | [G,,D,G,]6 | [E,,B,,E,]6 | [D,,A,,D,]6 | [G,,G,]3 z z2 | %35
 [B,,B,]2 [B,,B,] [B,,B,]2 [B,,B,] | .[E,E] z z4 | [E,,B,,E,]3 [B,,E,B,]3 | [E,B,E]3 z z2 | z6 | %40
 [B,,,B,,]2 [B,,,B,,] [B,,,B,,]2 [B,,,B,,] | [A,,,A,,][G,,,G,,][F,,,F,,] .[E,,,E,,]3 |] %42

